X: 1631
T: Anne McQuarrie's
R: reel
M: 4/4
K: Amajor
ag|aA A/A/A =g2 fg|afec eAce|aA A/A/A =g2 fg|afec Befg|
aA A/A/A =g2 fg|afec eAce|agfe fgaf|ecBc A2:|
e2|A/A/A e2 A/A/A e2|fefg afec|A/A/A e2 A/A/A e2|fecA B2 B2|
A/A/A e2 A/A/A e2|fefg agfe|fdfg agaf|ecBc A2:|

